X: 32681
T: Polca Dhún Masc
R: polka
M: 2/4
K: Amixolydian
|:fg/f/ ed|ea ef|gf ed|c/B/A A>e|
fg/f/ ed|ea ef|gf ed|cA A2:|
K: Dmaj
|:FD AD|FD AD|GB AG|FD D2|
FD AD|FD AD|FB AG|F/E/D D2:|
|:EA, CA,|EA, CA,|AD FD|AD D2|
EA, CA,|EA, CA,|AD FA|F/E/D D2:|

